24x24/actions/stroke-cap-bevel.svg

<svg viewBox="0 0 24 24" xmlns="http://www.w3.org/2000/svg"><path d="m10.242 4-4.242 4.242.008.008h-.008v11.75h4v-9.344l2.656-2.656h5.344v-4zm.414 1h6.344v2h-4.758l-3.242 3.242v8.758h-2v-10.344zm1.344 5v10h4v-6h2v-4zm1 1h4v2h-2v6h-2z" fill="#8b9cbe"/></svg>

<svg viewBox="0 0 24 24" xmlns="http://www.w3.org/2000/svg">
    <path d="M10.242 4 6 8.242l.008.008H6V20h4v-9.344L12.656 8H18V4zm.414 1H17v2h-4.758L9 10.242V19H7V8.656zM12 10v10h4v-6h2v-4zm1 1h4v2h-2v6h-2z" fill="#8b9cbe"/>
</svg>
